deployments/warp_routes/USAD/logo.svg

<svg xmlns="http://www.w3.org/2000/svg" width="512" height="512" fill="none" viewBox="165 165 220 220"><path fill="#000" d="M0 0h550v550H0z"/><g clip-path="url(#a)"><path fill="#fff" d="M355 195H195v87.253c0 27.576 17.663 52.051 43.834 60.74L275 355l36.166-12.007c26.171-8.689 43.834-33.164 43.834-60.74z"/><path fill="#fff" stroke="#000" stroke-width="13.12" d="M336.441 213.56v67.733c-.001 19.579-12.542 36.956-31.123 43.125L275 334.483l-30.317-10.065c-18.437-6.12-30.926-23.275-31.12-42.666l-.002-.459V213.56z"/><path fill="#000" d="M305.982 286.055c0 11.128-8.537 19.712-23.364 21.764a.324.324 0 0 0-.28.318v7.823a.32.32 0 0 1-.32.32h-14.464a.32.32 0 0 1-.32-.32v-7.925a.324.324 0 0 0-.277-.318c-14.386-2.126-22.798-10.292-23.05-22.13a.32.32 0 0 1 .318-.325h15.514c.172 0 .313.139.322.311.39 7.999 3.982 11.284 14.986 11.284 10.416 0 14.165-2.181 14.165-8.523 0-5.054-2.291-6.739-9.791-8.324l-13.437-2.676c-13.749-2.676-21.04-9.216-21.04-19.126 0-10.927 8.429-19.214 22.019-21.461a.32.32 0 0 0 .271-.317v-7.83a.32.32 0 0 1 .32-.32h14.464a.32.32 0 0 1 .32.32v7.932c0 .156.114.29.268.317 13.16 2.318 21.756 10.187 22.017 21.53a.32.32 0 0 1-.318.324h-15.521a.326.326 0 0 1-.322-.303c-.593-7.99-4.373-10.697-14.249-10.697-9.791 0-13.228 2.181-13.332 8.424 0 4.459 1.874 6.739 9.999 8.225l12.812 2.378c14.687 2.676 22.29 9.316 22.29 19.325"/><path fill="#000" stroke="#000" stroke-width=".32" d="M267.16 195.16h15.36V215h-15.36zm0 139.84h15.36v19.84h-15.36z"/></g><defs><clipPath id="a"><path fill="#fff" d="M195 195h160v160H195z"/></clipPath></defs></svg>

<svg width="512" height="512" viewBox="165 165 220 220" fill="none" xmlns="http://www.w3.org/2000/svg">
<rect width="550" height="550" fill="black"/>
<g clip-path="url(#clip0_22_2727)">
<path d="M355 195H275H195L195 282.253C195 309.829 212.663 334.304 238.834 342.993L275 355L311.166 342.993C337.337 334.304 355 309.829 355 282.253L355 195Z" fill="white"/>
<path d="M336.441 213.56V281.293C336.44 300.872 323.899 318.249 305.318 324.418L275 334.483L244.683 324.418C226.246 318.298 213.757 301.143 213.563 281.752L213.561 281.293V213.56H336.441Z" fill="white" stroke="black" stroke-width="13.12"/>
<path d="M305.982 286.055C305.982 297.183 297.445 305.767 282.618 307.819C282.459 307.841 282.338 307.977 282.338 308.137V315.96C282.338 316.137 282.195 316.28 282.018 316.28H267.554C267.378 316.28 267.234 316.137 267.234 315.96V308.035C267.234 307.876 267.115 307.741 266.957 307.717C252.571 305.591 244.159 297.425 243.907 285.587C243.903 285.409 244.047 285.262 244.225 285.262H259.739C259.911 285.262 260.052 285.401 260.061 285.573C260.451 293.572 264.043 296.857 275.047 296.857C285.463 296.857 289.212 294.676 289.212 288.334C289.212 283.28 286.921 281.595 279.421 280.01L265.984 277.334C252.235 274.658 244.944 268.118 244.944 258.208C244.944 247.281 253.373 238.994 266.963 236.747C267.118 236.722 267.234 236.588 267.234 236.43V228.6C267.234 228.423 267.378 228.28 267.554 228.28H282.018C282.195 228.28 282.338 228.423 282.338 228.6V236.532C282.338 236.688 282.452 236.822 282.606 236.849C295.766 239.167 304.362 247.036 304.623 258.379C304.627 258.556 304.483 258.703 304.305 258.703H288.784C288.615 258.703 288.475 258.569 288.462 258.4C287.869 250.41 284.089 247.703 274.213 247.703C264.422 247.703 260.985 249.884 260.881 256.127C260.881 260.586 262.755 262.866 270.88 264.352L283.692 266.73C298.379 269.406 305.982 276.046 305.982 286.055Z" fill="black"/>
<rect x="267.16" y="195.16" width="15.36" height="19.84" fill="black" stroke="black" stroke-width="0.32"/>
<rect x="267.16" y="335" width="15.36" height="19.84" fill="black" stroke="black" stroke-width="0.32"/>
</g>
<defs>
<clipPath id="clip0_22_2727">
<rect width="160" height="160" fill="white" transform="translate(195 195)"/>
</clipPath>
</defs>
</svg>
